assets/ai/ai-preregistered-de-tc-square.svg

<svg xmlns="http://www.w3.org/2000/svg" width="100%" height="100%" viewBox="-75.52 -43.52 599.04 599.04"><path d="M 48 32 C 21.5 32 0 53.5 0 80 L 0 432 C 0 458.5 21.5 480 48 480 L 400 480 C 426.5 480 448 458.5 448 432 L 448 80 C 448 53.5 426.5 32 400 32 L 48 32 z M 223.97852 96 C 233.33792 96 242.65324 98.051173 249.69531 102.14258 L 344.35938 156.7832 C 358.53177 164.96163 370.11914 185.00677 370.11914 201.3457 L 370.11914 310.64648 C 370.11914 326.98991 358.53177 347.0546 344.35938 355.22852 L 249.69531 409.87695 C 242.65324 413.95947 233.33792 416 223.97852 416 C 214.66352 416 205.3035 413.95947 198.26172 409.87695 L 103.59766 355.22852 C 89.469026 347.0546 77.880859 326.98991 77.880859 310.64648 L 77.880859 201.3457 C 77.880859 185.00677 89.469026 164.96163 103.59766 156.7832 L 198.26172 102.14258 C 205.30351 98.051173 214.66352 96 223.97852 96 z M 285.75195 164.76953 C 275.90602 164.76953 267.96094 172.26788 267.96094 182.60352 C 267.96094 192.9435 275.90602 200.44141 285.75195 200.44141 C 292.94836 200.44141 299.0843 196.42075 301.91016 190.3457 L 293.61133 188.18359 C 292.19823 190.53682 289.01891 192.20508 285.75195 192.20508 C 280.40987 192.20508 276.52344 188.52848 276.52344 182.60352 C 276.52344 176.9655 280.10073 172.9043 285.75195 172.9043 C 288.4451 172.9043 291.40574 174.12758 292.95117 176.08789 L 301.33594 173.88281 C 298.28952 168.39487 292.50689 164.76953 285.75195 164.76953 z M 238.35938 166.10352 L 238.35938 173.50391 L 248.2832 173.50391 L 248.2832 199.0918 L 256.14844 199.0918 L 256.14844 173.50391 L 266.20703 173.50391 L 266.20703 166.10352 L 238.35938 166.10352 z M 154.10742 166.10938 L 154.10742 199.0918 L 168.48828 199.0918 C 177.91401 199.0918 185.55664 192.64485 185.55664 182.75 C 185.55664 172.85082 177.91401 166.10938 168.48828 166.10938 L 154.10742 166.10938 z M 189.82812 166.11523 L 189.82812 199.10352 L 214.12109 199.10352 L 214.12109 191.70312 L 197.76758 191.70312 L 197.76758 185.85938 L 210.36914 185.85938 L 210.36914 178.92969 L 197.76758 178.92969 L 197.76758 173.50977 L 213.81641 173.50977 L 213.81641 166.11523 L 189.82812 166.11523 z M 161.97266 173.50391 L 168.48828 173.50391 C 173.22272 173.50391 177.30664 177.09024 177.30664 182.75 C 177.30664 188.40115 173.22272 191.69727 168.48828 191.69727 L 161.97266 191.69727 L 161.97266 173.50391 z M 287.93945 214.18555 L 287.93945 214.1875 C 285.20976 214.1875 282.46715 215.21994 280.36719 217.29102 L 206.05469 291.66602 C 201.85464 295.8038 195.09555 295.8038 190.98438 291.66602 L 173.07812 273.77734 C 168.96664 269.63072 162.15726 269.63072 158.00195 273.77734 L 146.51172 285.2793 C 143.24035 288.5462 142.35642 296.20012 146.51172 300.33789 L 190.98438 344.79688 C 195.09556 348.93464 201.85464 348.93464 206.05469 344.79688 L 306.98242 243.86328 C 311.09328 239.7211 311.09328 232.94541 306.98242 228.79883 L 295.44336 217.29102 C 293.38763 215.21997 290.66914 214.18555 287.93945 214.18555 z"/></svg>

<svg xmlns="http://www.w3.org/2000/svg" width="100%" height="100%" viewBox="-75.52 -43.52 599.04 599.04"><path d="M48 32C21.5 32 0 53.5 0 80v352c0 26.5 21.5 48 48 48h352c26.5 0 48-21.5 48-48V80c0-26.5-21.5-48-48-48H48zm175.979 64c9.359 0 18.674 2.051 25.716 6.143l94.664 54.64c14.173 8.179 25.76 28.224 25.76 44.563v109.3c0 16.344-11.587 36.409-25.76 44.583l-94.664 54.648c-7.042 4.082-16.357 6.123-25.716 6.123-9.315 0-18.675-2.04-25.717-6.123l-94.664-54.648c-14.129-8.174-25.717-28.24-25.717-44.583v-109.3c0-16.34 11.588-36.384 25.717-44.563l94.664-54.64C205.304 98.05 214.664 96 223.979 96zm61.773 68.77c-9.846 0-17.791 7.498-17.791 17.834 0 10.34 7.945 17.837 17.791 17.837 7.196 0 13.332-4.02 16.158-10.095l-8.299-2.162c-1.413 2.353-4.592 4.021-7.859 4.021-5.342 0-9.229-3.677-9.229-9.601 0-5.639 3.578-9.7 9.229-9.7 2.693 0 5.654 1.224 7.2 3.184l8.384-2.205c-3.046-5.488-8.83-9.113-15.584-9.113zm-47.393 1.334v7.4h9.924v25.588h7.865v-25.588h10.059v-7.4h-27.848zm-84.252.005v32.983h14.381c9.426 0 17.069-6.447 17.069-16.342 0-9.9-7.643-16.64-17.069-16.64h-14.38zm35.721.006v32.989h24.293v-7.4h-16.353v-5.845h12.601v-6.93h-12.601v-5.42h16.048v-7.394h-23.988zm-27.855 7.389h6.515c4.735 0 8.819 3.586 8.819 9.246 0 5.651-4.084 8.947-8.819 8.947h-6.515v-18.193zm125.966 40.682v.001c-2.73 0-5.472 1.033-7.572 3.104l-74.312 74.375c-4.2 4.138-10.96 4.138-15.07 0l-17.907-17.889c-4.111-4.146-10.92-4.146-15.076 0l-11.49 11.502c-3.272 3.267-4.156 10.921 0 15.059l44.472 44.459c4.112 4.138 10.87 4.138 15.07 0l100.928-100.934c4.111-4.142 4.111-10.918 0-15.064l-11.539-11.508c-2.055-2.071-4.774-3.105-7.504-3.105z"/></svg>
